X:1
T:Let the Master In
T:Let the Master In
T:Robert Lowry
T:Sylvanus Dryden Phelps, 1871
T:Public Domain Courtesy of the Cyber Hymnal™
T:Public Domain Courtesy of the Cyber Hymnal™
C:Robert Lowry
Z:Public Domain
Z:Courtesy of the Cyber Hymnal™
%%score ( 1 2 ) ( 3 4 )
L:1/8
Q:1/4=100
M:4/4
K:G
V:1 treble 
V:2 treble 
V:3 bass 
V:4 bass 
V:1
 [B,G][CA] | [DB]2 [DB]2 [DB]2 [CA][B,G] | [CA]2 [CE]2 [CE]2 E[DG] | %3
w: 1.~Once I|heard a sound at my|heart’s dark door, And was|
w: 2.~Then He|spread a feast of re-|deem- ing love, And He|
w: 3.~In the|ho- ly war with the|foes of truth, He’s my|
w: 4.~He will|feast me still with His|pre- sence dear, And the|
 [DF]2 [DF][DG] [FA]2 [GB][Ac] | [GB]6 [DG][DA] | [GB]2 [GB]2 [GB]2 [DA][DG] | %6
w: roused from the slum- ber of|sin; It was|Je- sus knocked, He had|
w: made me His own hap- py|guest; In my|joy I thought that the|
w: shield, He my ta- ble pre-|pares; He res-|tores my soul, He re-|
w: love He so free- ly has|giv’n, While His|prom- ise tells, as I|
 [EA]2 [CE]2 [CE]2 E[DG] | [DF]2 [DF][DG] [GB]2 [FA]>[FA] | G6 ||"^Refrain" (Bc) | [Gd]4 [Gd]4 | %11
w: knocked be- fore; Now I|said, “Bless- èd Mas- ter, come|in.”|||
w: saints a- bove Could be|hard- ly more fa- vored or|blest.|Then *|o- pen,|
w: news my youth, And gives|tri- umph in an- swer to|prayers.|||
w: serve Him here, Of the|ban- quet of glo- ry in|Heav’n.|||
 c4 c4 | [DB]2 [DB]2 [DB][Dc][Dd][DB] | (A4 d2) [Dd][Dc] | [DB]2 [DB]>[DB] [GB]2 [DA][DG] | %15
w: ||||
w: o- pen,|o- pen, let the Mas- ter|in; * For the|heart will be bright with a|
w: ||||
w: ||||
 [EA]2 [CE]2 [CE]2 E[DG] | [DF]2 (FG) [FA]2 [FA]2 | G6 |] %18
w: |||
w: heav’n- ly light When you|let the * Mas- ter|in.|
w: |||
w: |||
V:2
 x2 | x8 | x6 E x | x8 | x8 | x8 | x6 E x | x8 | G6 || D2 | x8 | (F2 F2) (FGAF) | x8 | D6 x2 | x8 | %15
 x6 E x | x2 D2 x4 | G6 |] %18
V:3
 G,G, | G,2 G,2 G,2 G,G, | [C,E,]2 [C,G,]2 [C,G,]2 [C,G,][B,,G,] | %3
w: ~ ~|~ ~ ~ ~ ~|~ ~ ~ ~ ~|
 [D,A,]2 [D,A,][D,B,] [D,D]2 [D,D][D,D] | [G,D]6 [G,B,][G,C] | [G,D]2 [G,D]2 [G,D]2 [G,C][G,B,] | %6
w: ~ ~ ~ ~ ~ ~|~ ~ ~|~ ~ ~ ~ ~|
 [C,C]2 [C,G,]2 [C,G,]2 [C,G,][B,,G,] | [D,A,]2 [D,A,][D,B,] [D,D]2 [D,D]>[D,C] | [G,,B,]6 || %9
w: ~ ~ ~ ~ ~|~ ~ ~ ~ ~ ~|~|
 (G,A,) | [G,B,]2 [G,B,]2 ([G,B,][A,C]) ([B,D][G,B,]) | A,4 A,4 | G,2 G,2 G,[G,A,][G,B,]G, | %13
w: Then *|o- pen to * Him, *|o- pen|to Him, O- pen; let the|
 [D,F,]2 [D,F,][D,F,] ([D,F,][C,A,])[B,,G,][A,,F,] | [G,,G,]2 G,>[G,B,] [G,D]2 [G,C][G,B,] | %15
w: Mas- ter in, let * Him in;||
 [C,C]2 [C,G,]2 [C,G,]2 [C,G,][B,,G,] | [D,A,]2 (A,B,) [D,D]2 [D,C]2 | [G,,B,]6 |] %18
w: |||
V:4
 G,G, | G,2 G,2 G,2 G,G, | x8 | x8 | x8 | x8 | x8 | x8 | x6 || G,2 | x8 | D,2 D,2 (D,E,) (F,D,) | %12
 G,2 G,2 G, x G, x | x8 | x2 G,3/2 x9/2 | x8 | x2 D,2 x4 | x6 |] %18

